X:1
T:The Wonderful Star
T:The Wonderful Star
T:George Beaverson
T:Charles Walker Ray, 1893
T:Public Domain Courtesy of the Cyber Hymnal™
T:Public Domain Courtesy of the Cyber Hymnal™
T:Public Domain Courtesy of the Cyber Hymnal™
C:George Beaverson
Z:Public Domain
Z:Courtesy of the Cyber Hymnal™
%%score ( 1 2 ) ( 3 4 )
L:1/8
Q:1/4=88
M:9/8
K:Ab
V:1 treble 
V:2 treble 
V:3 bass 
V:4 bass 
V:1
"^Moderato" [CE][CE][CA] [DB] | [Ec]4 [EB][EA] [FB][FA][DF] | [DF] [CE]4 [CE] [CE][CA][Ec] | %3
w: 1.~How still was the|night while the shep- herds were|dream- ing; How bright was the|
w: 2.~How hushed was the|world while the Day- star was|near- ing, How blest was the|
w: 3.~O won- der- ful|star the ho- ri- zon a-|dorn- ing, Bright her- ald of|
 [Ee]4 [Ed][Ec] [Ec][EB][EA] | [Ec] [EB]4 [EB] [EB][Ec][Ed] | [Ed]4 [Ec][DB] [CA][DG][EA] | %6
w: star o’er the moun- tain tops|gleam- ing, While all the glad|hea- vens were smil- ing, and|
w: dawn of His prom- ised ap-|pear- ing, While watch- ers long|wait- ing, the pro- phets re-|
w: peace, to the world a glad|warn- ing; Pro- claim- ing as|near on that beau- ti- ful|
 [FB] [DF]2- [DF]3 [DF]3 | [CE][EA][Ec] [EB]3 [EA]2 [EG] | [EA]3- [EA]2"^dolce" [EA] [FA][FA][FA] | %9
w: seem- ing * To|wait for the long prom- ised|king. * But lo! what an|
w: ver- ing, * With|an- gels made wel- come the|morn. * The won- der- ful|
w: morn- ing, * The|Prince and Re- deem- er of|men. * O won- der- ful|
 [=Ec]4 [EB][EA] [EG][EA][EG] | [CF]3 C2"^a tempo" C [=DF][DF][DF] | [EG]4 [EG][EG] [=DA][DG][DA] | %12
w: hour when the Sav- ior des-|cend- ed, And realms of bright|glo- ry to earth seemed ex-|
w: star so long sought thro’ the|ag- es, Is seen from a-|far by the won- der- ing|
w: star, which the dark- ness con-|found- ed! O won- der- ful|Child by the shep- herds sur-|
 [EB]3 [EB]2 [DE] [DE][DE][DE] | [Ec]4 [Fd][Ec] [DB][Ec][DB] | [CA]3 [CE]3 [Ec]3 | %15
w: tend- ed, And when to the|low- ly by Je- sus be-|friend- ed, The|
w: sag- es, And joy up- on|earth in its beau- ty pre-|sag- es, And|
w: round- ed, O won- der- ful|song which in prais- es re-|sound- ed O’er|
 [EB][EB][EB] [F=d]3 [Ac]2 [Ad] | [Ge]6 ||"^Refrain" [Ed]3 | %18
w: an- gels good tid- ings would|bring.|O|
w: tells that the Sav- ior is|born.|O|
w: moun- tain, and val- ley, and|glen.|O|
 [Ec]>[Fd][Ec] [DB]>[Ec][DB] [CA]>[EG][DF] | [CE]6 [CE]3 | %20
w: beau- ti- ful, beau- ti- ful, beau- ti- ful|Star, In|
w: beau- ti- ful, beau- ti- ful, beau- ti- ful|Star, In|
w: won- der- ful Child, and most won- der- ful|birth, The|
 [CA]>[DB][CA] [CA]>[DG][EA] [=DB]>[Dc][DB] | [EB]6 [DE]3 | %22
w: ra- di- ant splen- dor it shone from a-|far, Its|
w: ra- di- ant splen- dor it shone from a-|far, Its|
w: Prince of the skies is the joy of the|earth; The|
 [Ec]>[Fd][Ec] [EB][EA][EG] [DF]>[EG][DA] | [CE]6 [Ee]3 | [Ee][Ed][Ec] [EB][E=A][EB] [Ec]2 [DB] | %25
w: beau- ty ex- ceed- ing the love- li- est|gem, While|guid- ing the pil- grims to Beth- le-|
w: beau- ty ex- ceed- ing the love- li- est|gem, While|guid- ing the pil- grims to Beth- le-|
w: Son of the High- est, a Sav- ior is|given, The|Light of the world and the joy of|
 [CA]3- [CA]2 |] %26
w: hem. *|
w: hem. *|
w: Heaven! *|
V:2
 x4 | x9 | x9 | x9 | x9 | x9 | x9 | x9 | x9 | x9 | x3 C2 C x3 | x9 | x9 | x9 | x9 | x9 | x6 || x3 | %18
 x9 | x9 | x9 | x9 | x9 | x9 | x9 | x5 |] %26
V:3
 [A,,A,][A,,A,][A,,A,] [A,,A,] | [A,,A,]4 [B,,G,][C,A,] [D,A,][D,A,][D,A,] | %2
 [A,,A,] [A,,A,]4 A, A,A,A, | [A,C]4 [A,B,]A, A,[G,B,][A,C] | %4
 [E,A,] [E,G,]4 [E,G,] [E,G,][E,A,][E,B,] | [E,B,]4 [E,A,][E,G,] [A,,A,][B,,E,][C,A,] | %6
 [D,A,] [D,A,]2- [D,A,]3 [D,A,]3 | [E,A,][E,C][E,E] [E,D]3 [E,C]2 [E,B,] | %8
 [A,,A,C]3- [A,,A,C]2 [A,C] [F,C][F,C][F,C] | [C,C]4 [C,G,][C,G,] [C,C][C,C][C,B,] | %10
 [F,A,]3 [F,A,]2 [F,A,] [B,,B,][B,,B,][B,,B,] | [E,B,]4 [E,B,][E,B,] [B,,B,][B,,B,][B,,B,] | %12
 [E,G,]3 [E,G,]2 [E,G,] [E,G,][E,G,][E,G,] | [A,,A,]4 [A,,A,][A,,A,] [E,G,][E,G,][E,G,] | %14
 [A,,A,]3 [A,,A,]3 [A,,A,]3 | [B,,G,][B,,G,][B,,G,] [B,,B,]3 [B,,B,]2 [B,,B,] | [E,B,]6 || %17
 [E,G,]3 | [A,,A,]>[A,,A,][A,,A,] [E,G,]>[E,G,][E,G,] [A,,A,]>[A,,A,][A,,A,] | [A,,A,]6 [A,,A,]3 | %20
 [A,,E,]>[A,,E,][A,,E,] [A,,E,]>[B,,E,][C,A,] [B,,A,]>[B,,B,][B,,A,] | [E,G,]6 [E,G,]3 | %22
 [A,,A,]>[A,,A,][A,,A,] [B,,G,][C,A,][C,A,] [D,A,]>[D,A,][F,A,] | A,6 [A,C]3 | %24
 [E,C][E,B,][E,A,] [E,G,][E,^F,][E,G,] [E,A,]2 [E,G,] | [A,,E,A,]3- [A,,E,A,]2 |] %26
V:4
 x4 | x9 | x5 A, A,A,A, | x5 A, A, x2 | x9 | x9 | x9 | x9 | x9 | x9 | x9 | x9 | x9 | x9 | x9 | x9 | %16
 x6 || x3 | x9 | x9 | x9 | x9 | x9 | A,6 x3 | x9 | x5 |] %26

